X: 1355
T: Menekşe Gözler Hülyalı
C: Yesârî Âsım Arsoy
O: Turkey
F: http://compmusic.upf.edu/node/140
N: ussak--sarki--duyek--menekse_gozler--yesari_asim_arsoy
N: makam= ussak
N: form= sarki
N: usul= duyek = 8/4
M: 8/4
L: 1/16
K: C _2/4B   
Q: 1/4=144
%%MIDI tuningsystem comma53
ed e4 ed ed ed ed c2  | dc d4 dc dc dc dc B2  | 
w:  ARANAĞME  |   | 
cB c4 cB cB cB cB A2  | cB Ad cB BA AB cd e/f/e/d/ e2  | 
w:   |   | 
ed e4 ed ed ed ed c2  | dc d4 dc dc dc dc B2  | 
w:  ARANAĞME  |   | 
cB c4 cB cB cB cB A2  | cB Ad cB BA A3d ce d2  | 
w:   |   | 
c2 d4 dc d2 {f}ed d4  | {g}e6 ed d3/2f/ ed d4  | \
w:  Me nek şe  *  göz *  *  *  ler   |  *  hül *  *  ya *  *  *  lı    | 
e2 ed c2 B2 c2 cd cB A2  | 
w:  Ba kış *  *  la rı  *  *  çok   | 
d6 de dc2d (3cBA B2  | G2 A4 B2 cc BA G^F G2  | \
w:  mâ *  *  nâ *  *  lı    |  Gö nül  ya kı *  *  *  cı   | 
A2 B2 c2 d2 d2 {f}ed d4  | 
w:  o  *  *  *  göz *  *  *  ler    | 
gf ed d2 e2 ed cd (3cBA B2  | z2 d4 dc cB BA A4  | 
w:  Me *  ğer  *  *  e zel *  *  *  den   |  sev *  *  da *  *  *  lı    | 
G2 A4 B2 cc BA G^F G2  | A2 B2 c2 d2 d2 {f}ed d4  | \
w:  Gö nül  ya kı *  *  *  cı   |  o  *  *  *  göz *  *  *  ler    | 
gf ed d2 e2 ed cd (3cBA B2  | 
w:  Me *  ğer  *  *  e zel *  *  *  den   | 
z2 d4 dc cB BA A4  | e2 e4 ed de2d ee d2  | \
w:  sev *  *  da *  *  *  lı    |  Gel_ et me  *  ey *  *  le me    | 
d2 gf e2 ed de2d ee d2  | 
w:  Ak si  *  *  söz  *  söy *  *  le me    | 
c2 de d2 e2 ed cB dd3  | c2 d2 {e}c2 d2 dc2d cB BA  | 
w:  Be ni  *  *  redd_ ey *  *  *  le me    |  Be ni  *  *  terk_ ey *  *  le *  me    | 
d2 dc B2 A2 d{f}e ed cB BA  | A16  | \
w:  Ca nım  *  *  *  gü *  *  lüm   |  hey    | 
ed e4 ed ed ed ed c2  | 
w:  ARANAĞME  | 
dc d4 dc dc dc dc B2  | cB c4 cB cB cB cB A2  | 
w:   |   | 
cB Ad cB BA AB cd e/f/e/d/ e2  | ed e4 ed ed ed ed c2  | 
w:   |  ARANAĞME  | 
dc d4 dc dc dc dc B2  | cB c4 cB cB cB cB A2  | 
w:   |   | 
cB Ad cB BA A3d ce d2  | c2 d4 dc d2 {f}ed d4  | 
w:   |  Me nek şe  *  göz *  *  *  ler   | 
{g}e6 ed d3/2f/ ed d4  | e2 ed c2 B2 c2 cd cB A2  | \
w:  *  hül *  *  ya *  *  *  lı    |  Ba kış *  *  la rı  *  *  çok   | 
d6 de dc2d (3cBA B2  | 
w:  mâ *  *  nâ *  *  lı    | 
G2 A4 B2 cc BA G^F G2  | A2 B2 c2 d2 d2 {f}ed d4  | \
w:  Gö nül  ya kı *  *  *  cı   |  o  *  *  *  göz *  *  *  ler    | 
gf ed d2 e2 ed cd (3cBA B2  | 
w:  Me *  ğer  *  *  e zel *  *  *  den   | 
z2 d4 dc cB BA A4  | G2 A4 B2 cc BA G^F G2  | \
w:  sev *  *  da *  *  *  lı    |  Gö nül  ya kı *  *  *  cı   | 
A2 B2 c2 d2 d2 {f}ed d4  | 
w:  o  *  *  *  göz *  *  *  ler    | 
gf ed d2 e2 ed cd (3cBA B2  | z2 d4 dc cB BA A4  | 
w:  Me *  ğer  *  *  e zel *  *  *  den   |  sev *  *  da *  *  *  lı    | 
e2 e4 ed de2d ee d2  | d2 gf e2 ed de2d ee d2  | 
w:  Gel_ et me  *  ey *  *  le me    |  Ak si  *  *  söz  *  söy *  *  le me    | 
c2 de d2 e2 ed cB dd3  | c2 d2 {e}c2 d2 dc2d cB BA  | 
w:  Be ni  *  *  redd_ ey *  *  *  le me    |  Be ni  *  *  terk_ ey *  *  le *  me    | 
d2 dc B2 A2 d{f}e ed cB BA  | A16  | |


